dist/img/star.svg

<svg width="34" height="33" viewBox="0 0 34 33" fill="none" xmlns="http://www.w3.org/2000/svg">
<path d="M16.0489 0.927051C16.3483 0.00574006 17.6517 0.00574006 17.9511 0.927051L21.2658 11.1287C21.3996 11.5407 21.7836 11.8197 22.2168 11.8197H32.9434C33.9122 11.8197 34.3149 13.0593 33.5312 13.6287L24.8532 19.9336C24.5027 20.1883 24.3561 20.6396 24.4899 21.0517L27.8046 31.2533C28.104 32.1746 27.0495 32.9407 26.2658 32.3713L17.5878 26.0664C17.2373 25.8117 16.7627 25.8117 16.4122 26.0664L7.73419 32.3713C6.95048 32.9407 5.896 32.1746 6.19535 31.2533L9.51006 21.0517C9.64393 20.6396 9.49728 20.1883 9.14679 19.9336L0.468768 13.6287C-0.314945 13.0593 0.0878302 11.8197 1.05655 11.8197H11.7832C12.2164 11.8197 12.6004 11.5407 12.7342 11.1287L16.0489 0.927051Z" fill="#D1327F"/>
</svg>

<svg width="34" height="33" fill="none" xmlns="http://www.w3.org/2000/svg"><path d="M16.049.927c.3-.921 1.603-.921 1.902 0l3.315 10.202a1 1 0 0 0 .95.69h10.727c.97 0 1.372 1.24.588 1.81l-8.678 6.305a1 1 0 0 0-.363 1.118l3.315 10.201c.299.922-.756 1.688-1.54 1.118l-8.677-6.305a1 1 0 0 0-1.176 0l-8.678 6.305c-.784.57-1.838-.196-1.539-1.118L9.51 21.052a1 1 0 0 0-.363-1.118L.469 13.629c-.784-.57-.381-1.81.588-1.81h10.726a1 1 0 0 0 .951-.69L16.05.927Z" fill="#D1327F"/></svg>
